X:1
T:The Beginning of Months, 77.77.777
T:The Beginning of Months, 77.77.777
T:Joe Uthup, 2017
T:Public Domain Courtesy of the Cyber Hymnal™
C:Joe Uthup, 2017
Z:Public Domain
Z:Courtesy of the Cyber Hymnal™
%%score 1 2
L:1/8
Q:1/4=90
M:4/4
K:D
V:1 treble 
V:2 bass 
V:1
 [DF]3 [EG] [FA]2 [CF]2 | [Gd]3 [GB] [FA]4 | [DF]2 [EG]2 ([FA][DF])([A,E][B,D]) | [CE]8 | %4
 [DF]3 [EG] [FA]2 [DF]2 | [B,D]2 [B,E]2 [_B,F]3 [B,G] | [FA]2 ([DF][A,D]) [G,E]3 [F,D] | [F,D]8 | %8
 [Dd]2 [DA]2 [DB]2 [DG]2 | [DE]2 [D^G]2 [CA]4 | [CA]2 [Ec]2 [Fd]2 [GB]2 | [EA]2 [E^G]2 [EA]4 | %12
 [Fd]3 [Fd] [GB]2 [Gd]2 | [Ad]2 [Gc]2 [Fd]4 |] %14
V:2
 [D,A,]3 [D,A,] [C,A,]2 [C,A,]2 | [B,,G,]3 [B,,G,] [A,,F,]4 | %2
 [A,,A,]2 [G,,G,]2 [F,,F,]2 ([E,,E,][^G,,E,]) | [A,,E,]8 | [D,A,]3 [C,A,] [=C,F,]2 [C,A,]2 | %5
 [B,,G,]2 [B,,G,]2 [G,,D,]3 [G,,E,] | [F,,D,]2 [B,,F,]2 [E,,E,]2 [A,,E,]2 | [D,,D,]8 | %8
 [D,,D,]2 [F,,F,]2 [G,,G,]2 [B,,G,]2 | [B,,G,]2 [B,,E,]2 [A,,E,]4 | %10
 [A,,F,]2 [^A,,F,]2 [B,,F,]2 [G,,G,]2 | [A,,G,]2 [B,,^G,]2 ([C,A,][E,C][D,B,][C,A,]) | %12
 [B,,F,]3 [A,,F,] [G,,D,]2 [G,,E,]2 | [E,,E,]2 [A,,E,]2 [D,,D,]4 |] %14

